icons/explore.svg

<svg width="27" height="27" viewBox="0 0 27 27" fill="none" xmlns="http://www.w3.org/2000/svg">
<path fill-rule="evenodd" clip-rule="evenodd" d="M0.583374 13.5C0.583374 6.37004 6.37004 0.583374 13.5 0.583374C20.63 0.583374 26.4167 6.37004 26.4167 13.5C26.4167 20.63 20.63 26.4167 13.5 26.4167C6.37004 26.4167 0.583374 20.63 0.583374 13.5ZM3.16673 13.5001C3.16673 19.1963 7.80381 23.8334 13.5001 23.8334C19.1963 23.8334 23.8334 19.1963 23.8334 13.5001C23.8334 7.80381 19.1963 3.16673 13.5001 3.16673C7.80381 3.16673 3.16673 7.80381 3.16673 13.5001ZM6.39587 20.6042L16.0963 16.0963L20.6042 6.39587L10.9038 10.9038L6.39587 20.6042ZM14.9209 13.5C14.9209 12.7121 14.288 12.0792 13.5 12.0792C12.7121 12.0792 12.0792 12.7121 12.0792 13.5C12.0792 14.288 12.7121 14.9209 13.5 14.9209C14.288 14.9209 14.9209 14.288 14.9209 13.5Z" fill="#222222"/>
</svg>

<svg width="27" height="27" fill="none" xmlns="http://www.w3.org/2000/svg"><path fill-rule="evenodd" clip-rule="evenodd" d="M.583 13.5C.583 6.37 6.37.583 13.5.583S26.417 6.37 26.417 13.5 20.63 26.417 13.5 26.417.583 20.63.583 13.5zm2.584 0c0 5.696 4.637 10.333 10.333 10.333 5.696 0 10.333-4.637 10.333-10.333 0-5.696-4.637-10.333-10.333-10.333-5.696 0-10.333 4.637-10.333 10.333zm3.229 7.104 9.7-4.508 4.508-9.7-9.7 4.508-4.508 9.7zM14.92 13.5c0-.788-.633-1.42-1.421-1.42s-1.42.632-1.42 1.42c0 .788.632 1.42 1.42 1.42.788 0 1.42-.632 1.42-1.42z" fill="#222"/></svg>
